X: 10072
T: I'LL GANG NAE MAIR TO YON TOWN.     a Reel.
R: reel
B: "Edinburgh Repository of Music" v.1 p.7 #2
F: http://digital.nls.uk/special-collections-of-printed-music/pageturner.cfm?id=87776133
Z: 2015 John Chambers <jc:trillian.mit.edu>
M: C|
L: 1/8
K: G
B |\
G>gg>d TB2Gd | (B/c/d) .G.d BAAa |\
b/a/g/f/ g>d B2 Gd | B/c/d Ac BG G :|
|: c |\
B>Gd>G eGdg | BG e/d/c/B/ cAAc |\
B>Gd>G eGdG | (B/c/d) (.A.c) BG G :|

%%sep 2 1 500
%%sep 1 1 500

